P3
# 8x6 synthetic workcell
8 6
255
240 240 240 240 240 240 240 240 240 240 240 240 240 240 240 240 240 240 240 240 240 240 240 240
240 240 240 220 30 30 220 30 30 240 240 240 40 190 40 40 190 40 240 240 240 240 240 240
240 240 240 220 30 30 220 30 30 240 240 240 40 190 40 40 190 40 240 240 240 240 240 240
240 240 240 240 240 240 240 240 240 240 240 240 40 70 220 40 70 220 240 240 240 240 240 240
210 180 40 210 180 40 240 240 240 240 240 240 40 70 220 40 70 220 240 240 240 240 240 240
210 180 40 210 180 40 240 240 240 240 240 240 240 240 240 240 240 240 240 240 240 240 240 240
